X: 1
T: The Munster Cloak
R: waltz
M: 3/4
L: 1/8
K: Gmaj
G2 GA BG | A2 AB cA | G2 GA Bd | c2 A2 F2 |!
G2 GA BG | A2 AB cA | d2 defd | c2 A2 F2 :|!
g2- ga gf | d2 g2 a2 | b2 a2 g2 | f2 g2 a2 |!
b2 a2 g2 | f2 de fd | dc Ad cA | A2 G2 G2 :|]!


Tune 1126	Setting 14387

